swiss/communes/5585.svg

<?xml version="1.0" encoding="UTF-8" standalone="no"?>
<svg
   xmlns:dc="http://purl.org/dc/elements/1.1/"
   xmlns:cc="http://creativecommons.org/ns#"
   xmlns:rdf="http://www.w3.org/1999/02/22-rdf-syntax-ns#"
   xmlns:svg="http://www.w3.org/2000/svg"
   xmlns="http://www.w3.org/2000/svg"
   xmlns:xlink="http://www.w3.org/1999/xlink"
   xmlns:sodipodi="http://sodipodi.sourceforge.net/DTD/sodipodi-0.dtd"
   xmlns:inkscape="http://www.inkscape.org/namespaces/inkscape"
   height="763"
   width="603"
   version="1.0"
   id="svg20"
   sodipodi:version="0.32"
   inkscape:version="0.46"
   sodipodi:docname="Jouxtens-Mezery-coat_of_arms.svg"
   sodipodi:docbase="C:\Documents and Settings\Steve\Bureau\Blason Villages Suisse pour Wikipédia (par Delta-9)"
   inkscape:output_extension="org.inkscape.output.svg.inkscape">
  <metadata
     id="metadata31">
    <rdf:RDF>
      <cc:Work
         rdf:about="">
        <dc:format>image/svg+xml</dc:format>
        <dc:type
           rdf:resource="http://purl.org/dc/dcmitype/StillImage" />
        <dc:date>07-AUG-2006</dc:date>
        <dc:creator>
          <cc:Agent>
            <dc:title>Jérôme BLUM (wagner51)</dc:title>
          </cc:Agent>
        </dc:creator>
        <cc:license
           rdf:resource="http://creativecommons.org/licenses/GPL/2.0/" />
        <dc:coverage />
        <dc:description>Gabarit pour le Projet:Blasons de WIkipédia</dc:description>
        <dc:subject>
          <rdf:Bag>
            <rdf:li>blason suisse modèle gabarit projet blasons</rdf:li>
          </rdf:Bag>
        </dc:subject>
        <dc:language>fr</dc:language>
        <dc:title>Gabrit d'un blason suisse</dc:title>
      </cc:Work>
      <cc:License
         rdf:about="http://creativecommons.org/licenses/GPL/2.0/">
        <cc:permits
           rdf:resource="http://web.resource.org/cc/Reproduction" />
        <cc:permits
           rdf:resource="http://web.resource.org/cc/Distribution" />
        <cc:requires
           rdf:resource="http://web.resource.org/cc/Notice" />
        <cc:permits
           rdf:resource="http://web.resource.org/cc/DerivativeWorks" />
        <cc:requires
           rdf:resource="http://web.resource.org/cc/ShareAlike" />
        <cc:requires
           rdf:resource="http://web.resource.org/cc/SourceCode" />
      </cc:License>
    </rdf:RDF>
  </metadata>
  <defs
     id="defs29"><inkscape:perspective
   sodipodi:type="inkscape:persp3d"
   inkscape:vp_x="0 : 381.5 : 1"
   inkscape:vp_y="0 : 1000 : 0"
   inkscape:vp_z="603 : 381.5 : 1"
   inkscape:persp3d-origin="301.5 : 254.33333 : 1"
   id="perspective28" />
<linearGradient
   id="linearGradient2893">
  <stop
     style="stop-color:#ffffff;stop-opacity:0.3137255;"
     offset="0"
     id="stop2895" />
  <stop
     id="stop2897"
     offset="0.19"
     style="stop-color:#ffffff;stop-opacity:0.25098041;" />
  <stop
     style="stop-color:#6b6b6b;stop-opacity:0.1254902;"
     offset="0.60000002"
     id="stop2901" />
  <stop
     style="stop-color:#000000;stop-opacity:0.1254902;"
     offset="1"
     id="stop2899" />
</linearGradient>
<linearGradient
   id="linearGradient2955">
  <stop
     style="stop-color:white;stop-opacity:0;"
     offset="0"
     id="stop2965" />
  <stop
     style="stop-color:black;stop-opacity:0.64583331;"
     offset="1"
     id="stop2959" />
</linearGradient>
<radialGradient
   inkscape:collect="always"
   xlink:href="#linearGradient2893"
   id="radialGradient3236"
   gradientUnits="userSpaceOnUse"
   gradientTransform="matrix(1.215027,1.531577e-24,1.464684e-23,1.266667,-839.1924,-490.4894)"
   cx="858.04236"
   cy="579.93323"
   fx="858.04236"
   fy="579.93323"
   r="300" />
<inkscape:perspective
   id="perspective2674"
   inkscape:persp3d-origin="297.63751 : 280.63 : 1"
   inkscape:vp_z="595.27502 : 420.94501 : 1"
   inkscape:vp_y="0 : 1000 : 0"
   inkscape:vp_x="0 : 420.94501 : 1"
   sodipodi:type="inkscape:persp3d" />

	
	
	
	

	
	

		
		
		
	
		
		
	
		
		
	
			
			
			
			
		
			
			
			
			
		
			
			
			
			
		</defs>
  <sodipodi:namedview
     inkscape:window-height="968"
     inkscape:window-width="1280"
     inkscape:pageshadow="2"
     inkscape:pageopacity="0.0"
     guidetolerance="10.0"
     gridtolerance="10.0"
     objecttolerance="10.0"
     borderopacity="1.0"
     bordercolor="#666666"
     pagecolor="#ffffff"
     id="base"
     inkscape:zoom="0.91549296"
     inkscape:cx="286"
     inkscape:cy="394"
     inkscape:window-x="1280"
     inkscape:window-y="22"
     inkscape:current-layer="layer2"
     showgrid="false"
     showguides="true"
     inkscape:guide-bbox="true">
    <sodipodi:guide
       orientation="horizontal"
       position="761.5"
       id="guide1885" />
    <sodipodi:guide
       orientation="vertical"
       position="1.5"
       id="guide1887" />
    <sodipodi:guide
       orientation="horizontal"
       position="1.5"
       id="guide1889" />
    <sodipodi:guide
       orientation="vertical"
       position="601.5"
       id="guide1891" />
    <sodipodi:guide
       orientation="vertical"
       position="301.50081"
       id="guide1893" />
  </sodipodi:namedview>
  <desc
     id="desc22">Coat of Arms of Canton of Freiburg (Fribourg)</desc>
  <g
     inkscape:groupmode="layer"
     id="layer1"
     inkscape:label="Fond écu"
     style="opacity:1;display:inline"
     sodipodi:insensitive="true">
    <path
       d="M 1.50181,1.5010013 L 1.50181,460.37 C 1.50181,626.681 135.81581,761.501 301.50181,761.501 C 467.18781,761.501 601.50181,626.681 601.50181,460.37 L 601.50181,1.5010013 L 1.50181,1.5010013 z"
       id="path2681"
       style="opacity:1;fill:#ffffff;display:inline" />
    <path
       id="path2635"
       d="M 301.50081,761.5 C 467.18681,761.5 601.50081,626.68 601.50081,460.369 L 601.50081,1.5010013 L 301.50081,1.5010013 L 301.50081,761.5 L 301.50081,761.5 z"
       style="opacity:1;fill:#e20909;display:inline" />
  </g>
  <g
     inkscape:groupmode="layer"
     id="layer2"
     inkscape:label="Meubles"
     style="opacity:1;display:inline"
     sodipodi:insensitive="true">
    <polygon
       style="fill:#e20909"
       points="301.537,191.617 121.541,1.549 1.541,1.549 1.541,126.881 301.537,443.701 301.537,191.617 "
       id="polygon2640"
       transform="translate(-3.619e-2,-4.39987e-2)" />
    <path
       style="fill:#ffffff"
       d="M 301.50081,443.657 L 516.33181,670.536 C 559.27281,626.311 588.78081,568.893 598.23181,504.907 L 301.50081,191.573 L 301.50081,443.657 z"
       id="path2642" />
    <line
       id="line2644"
       y2="761.5"
       x2="301.50079"
       y1="1.5010005"
       x1="301.50079"
       style="fill:none;stroke:#000000;stroke-width:3" />
    <path
       style="fill:none;stroke:#000000;stroke-width:3"
       id="path2489_4_"
       d="M 598.23281,504.907 L 121.50481,1.5050013" />
    <path
       style="fill:none;stroke:#000000;stroke-width:3"
       id="path2489_3_"
       d="M 1.50481,126.837 L 1.50481,126.837 L 516.33181,670.536" />
    <g
       id="g2813">
      <path
         style="fill:#fcef3c;stroke:#000000;stroke-width:3;stroke-linecap:round;stroke-linejoin:round"
         id="path2001_3_"
         d="M 469.35581,558.476 C 485.71481,562.251 490.23881,545.255 490.23881,545.255 C 467.26781,553.946 468.31081,525.985 472.14081,511.251 C 475.96881,496.515 492.28581,483.181 501.37681,494.251 C 510.46481,505.319 500.67781,517.675 500.67781,517.675 C 500.67781,517.675 534.43981,508.986 534.43981,479.517 C 534.43981,450.048 505.48281,439.706 484.67181,456.849 C 474.57581,465.158 461.34981,480.646 461.34981,521.453 C 461.34981,534.298 462.04681,556.208 469.35581,558.476 z" />
      <path
         style="fill:#fcef3c;stroke:#000000;stroke-width:3;stroke-linecap:round;stroke-linejoin:round"
         id="path2003_3_"
         d="M 443.64681,558.476 C 427.28781,562.251 422.76381,545.255 422.76381,545.255 C 445.73481,553.946 444.68981,525.985 440.86381,511.251 C 437.03381,496.515 420.71681,483.181 411.62581,494.251 C 402.53781,505.319 412.32281,517.675 412.32281,517.675 C 412.32281,517.675 378.56181,508.986 378.56181,479.517 C 378.56181,450.048 407.51781,439.706 428.33281,456.849 C 438.42581,465.158 451.65281,480.646 451.65281,521.453 C 451.65381,534.298 450.95681,556.208 443.64681,558.476 z" />
      <path
         style="fill:#fcef3c;stroke:#000000;stroke-width:3;stroke-linecap:round;stroke-linejoin:round"
         id="path2005_3_"
         d="M 436.69981,442.789 C 436.69981,421.01 450.97681,410.058 456.50081,383.074 C 462.02281,410.058 476.30081,421.01 476.30081,442.789 C 476.30081,475.537 461.49981,483.928 461.49981,520.166 C 461.49981,547.826 468.67981,547.436 468.67981,557.959 C 468.67981,569.256 460.78181,568.865 456.49981,584.512 C 452.21681,568.866 444.32081,569.254 444.32081,557.959 C 444.32081,547.436 451.49981,547.824 451.49981,520.166 C 451.50181,483.929 436.69981,475.537 436.69981,442.789 z" />
      <path
         style="fill:#fcef3c;stroke:#000000;stroke-width:3;stroke-linecap:round;stroke-linejoin:round"
         id="path2007_3_"
         d="M 480.14481,520.162 C 480.14481,516.91 477.71681,514.275 474.71881,514.275 L 438.28081,514.275 C 435.28681,514.275 432.85681,516.91 432.85681,520.162 L 432.85681,520.162 C 432.85681,523.414 435.28681,526.049 438.28081,526.049 L 474.71881,526.049 C 477.71681,526.048 480.14481,523.412 480.14481,520.162 L 480.14481,520.162 z" />
    </g>
    <g
       id="g2819">
      <path
         style="fill:#fcef3c;stroke:#000000;stroke-width:3;stroke-linecap:round;stroke-linejoin:round"
         id="path2001_1_"
         d="M 314.35581,394.804 C 330.71481,398.579 335.23881,381.583 335.23881,381.583 C 312.26781,390.273 313.31081,362.313 317.14081,347.579 C 320.96881,332.843 337.28581,319.508 346.37681,330.578 C 355.46481,341.647 345.67781,354.003 345.67781,354.003 C 345.67781,354.003 379.43981,345.314 379.43981,315.844 C 379.43981,286.376 350.48281,276.033 329.67181,293.176 C 319.57581,301.485 306.34981,316.974 306.34981,357.78 C 306.34981,370.626 307.04681,392.536 314.35581,394.804 z" />
      <path
         style="fill:#fcef3c;stroke:#000000;stroke-width:3;stroke-linecap:round;stroke-linejoin:round"
         id="path2003_1_"
         d="M 288.64581,394.804 C 272.28681,398.579 267.76381,381.583 267.76381,381.583 C 290.73381,390.273 289.68981,362.313 285.86381,347.579 C 282.03381,332.843 265.71581,319.508 256.62581,330.578 C 247.53781,341.647 257.32181,354.003 257.32181,354.003 C 257.32181,354.003 223.56181,345.314 223.56181,315.844 C 223.56181,286.376 252.51781,276.033 273.33281,293.176 C 283.42581,301.485 296.65281,316.974 296.65281,357.78 C 296.65381,370.626 295.95781,392.536 288.64581,394.804 z" />
      <path
         style="fill:#fcef3c;stroke:#000000;stroke-width:3;stroke-linecap:round;stroke-linejoin:round"
         id="path2005_1_"
         d="M 281.69981,279.116 C 281.69981,257.337 295.97681,246.385 301.50081,219.401 C 307.02281,246.385 321.30081,257.337 321.30081,279.116 C 321.30081,311.865 306.49981,320.254 306.49981,356.492 C 306.49981,384.153 313.67981,383.762 313.67981,394.285 C 313.67981,405.583 305.78181,405.192 301.49981,420.838 C 297.21681,405.192 289.32081,405.58 289.32081,394.285 C 289.32081,383.762 296.49881,384.15 296.49881,356.492 C 296.50181,320.256 281.69981,311.865 281.69981,279.116 z" />
      <path
         style="fill:#fcef3c;stroke:#000000;stroke-width:3;stroke-linecap:round;stroke-linejoin:round"
         id="path2007_1_"
         d="M 325.14481,356.489 C 325.14481,353.238 322.71681,350.602 319.71881,350.602 L 283.28081,350.602 C 280.28581,350.602 277.85681,353.238 277.85681,356.489 L 277.85681,356.489 C 277.85681,359.741 280.28581,362.377 283.28081,362.377 L 319.71881,362.377 C 322.71681,362.376 325.14481,359.74 325.14481,356.489 L 325.14481,356.489 z" />
    </g>
    <g
       id="g2807">
      <path
         style="fill:#fcef3c;stroke:#000000;stroke-width:3;stroke-linecap:round;stroke-linejoin:round"
         id="path2001_2_"
         d="M 159.35781,231.133 C 175.71681,234.908 180.24081,217.912 180.24081,217.912 C 157.26981,226.602 158.31281,198.642 162.14281,183.908 C 165.97081,169.172 182.28781,155.837 191.37881,166.907 C 200.46681,177.976 190.67981,190.332 190.67981,190.332 C 190.67981,190.332 224.44181,181.643 224.44181,152.173 C 224.44181,122.705 195.48481,112.362 174.67381,129.505 C 164.57781,137.814 151.35181,153.303 151.35181,194.109 C 151.35181,206.956 152.04881,228.865 159.35781,231.133 z" />
      <path
         style="fill:#fcef3c;stroke:#000000;stroke-width:3;stroke-linecap:round;stroke-linejoin:round"
         id="path2003_2_"
         d="M 133.64781,231.133 C 117.28881,234.908 112.76581,217.912 112.76581,217.912 C 135.73581,226.602 134.69181,198.642 130.86581,183.908 C 127.03581,169.172 110.71781,155.837 101.62781,166.907 C 92.53981,177.976 102.32381,190.332 102.32381,190.332 C 102.32381,190.332 68.56381,181.643 68.56381,152.173 C 68.56381,122.705 97.51981,112.362 118.33481,129.505 C 128.42781,137.814 141.65481,153.303 141.65481,194.109 C 141.65581,206.956 140.95981,228.865 133.64781,231.133 z" />
      <path
         style="fill:#fcef3c;stroke:#000000;stroke-width:3;stroke-linecap:round;stroke-linejoin:round"
         id="path2005_2_"
         d="M 126.70181,115.445 C 126.70181,93.666001 140.97881,82.714001 146.50281,55.730001 C 152.02481,82.714001 166.30281,93.666001 166.30281,115.445 C 166.30281,148.194 151.50181,156.583 151.50181,192.821 C 151.50181,220.482 158.68181,220.091 158.68181,230.614 C 158.68181,241.912 150.78381,241.521 146.50181,257.167 C 142.21881,241.521 134.32281,241.909 134.32281,230.614 C 134.32281,220.091 141.50081,220.479 141.50081,192.821 C 141.50381,156.585 126.70181,148.194 126.70181,115.445 z" />
      <path
         style="fill:#fcef3c;stroke:#000000;stroke-width:3;stroke-linecap:round;stroke-linejoin:round"
         id="path2007_2_"
         d="M 170.14681,192.818 C 170.14681,189.567 167.71881,186.931 164.72081,186.931 L 128.28281,186.931 C 125.28781,186.931 122.85881,189.567 122.85881,192.818 L 122.85881,192.818 C 122.85881,196.07 125.28781,198.706 128.28281,198.706 L 164.72081,198.706 C 167.71881,198.705 170.14681,196.069 170.14681,192.818 L 170.14681,192.818 z" />
    </g>
  </g>
  <g
     inkscape:groupmode="layer"
     id="layer3"
     inkscape:label="Reflet final"
     style="display:inline"
     sodipodi:insensitive="true">
    <path
       style="fill:url(#radialGradient3236);fill-opacity:1"
       d="M 1.5,1.5 L 1.5,460.3679 C 1.5,626.67854 135.81454,761.5 301.49993,761.5 C 467.1854,761.5 601.5,626.67854 601.5,460.3679 L 601.5,1.5 L 1.5,1.5 z "
       id="path2346" />
  </g>
  <g
     inkscape:groupmode="layer"
     id="layer4"
     inkscape:label="Contour final"
     style="display:inline"
     sodipodi:insensitive="true">
    <path
       style="fill:none;fill-opacity:1;stroke:#000000;stroke-width:3;stroke-miterlimit:4;stroke-dasharray:none;stroke-opacity:1"
       d="M 1.5,1.5 L 1.5,460.36794 C 1.5,626.67854 135.81454,761.5 301.49993,761.5 C 467.1854,761.5 601.5,626.67854 601.5,460.36794 L 601.5,1.5 L 1.5,1.5 z "
       id="path3239" />
  </g>
</svg>

<svg xmlns="http://www.w3.org/2000/svg" xmlns:xlink="http://www.w3.org/1999/xlink" height="763" width="603" version="1.0"><defs><radialGradient xlink:href="#a" id="b" gradientUnits="userSpaceOnUse" gradientTransform="matrix(1.21503 0 0 1.26667 -839.192 -490.49)" cx="858.042" cy="579.933" fx="858.042" fy="579.933" r="300"/><linearGradient id="a"><stop style="stop-color:#fff;stop-opacity:.3137255" offset="0"/><stop offset=".19" style="stop-color:#fff;stop-opacity:.25098041"/><stop style="stop-color:#6b6b6b;stop-opacity:.1254902" offset=".6"/><stop style="stop-color:#000;stop-opacity:.1254902" offset="1"/></linearGradient></defs><g style="opacity:1;display:inline"><path d="M1.502 1.501V460.37c0 166.311 134.314 301.131 300 301.131s300-134.82 300-301.131V1.501h-600z" style="opacity:1;fill:#fff;display:inline"/><path d="M301.5 761.5c165.687 0 300-134.82 300-301.131V1.501h-300V761.5z" style="opacity:1;fill:#e20909;display:inline"/></g><g style="opacity:1;display:inline"><path style="fill:#e20909" transform="translate(-.036 -.044)" d="M301.537 191.617 121.541 1.549h-120v125.332l299.996 316.82V191.617z"/><path style="fill:#fff" d="m301.5 443.657 214.832 226.879c42.94-44.225 72.449-101.643 81.9-165.629L301.5 191.573v252.084z"/><path style="fill:none;stroke:#000;stroke-width:3" d="M301.501 1.501V761.5M598.233 504.907 121.505 1.505M1.505 126.837l514.827 543.699"/><path style="fill:#fcef3c;stroke:#000;stroke-width:3;stroke-linecap:round;stroke-linejoin:round" d="M469.356 558.476c16.359 3.775 20.883-13.221 20.883-13.221-22.971 8.691-21.928-19.27-18.098-34.004 3.828-14.736 20.145-28.07 29.236-17 9.088 11.068-.7 23.424-.7 23.424s33.763-8.689 33.763-38.158-28.957-39.811-49.768-22.668c-10.096 8.309-23.322 23.797-23.322 64.604 0 12.845.697 34.755 8.006 37.023zM443.647 558.476c-16.36 3.775-20.883-13.221-20.883-13.221 22.97 8.691 21.926-19.27 18.1-34.004-3.83-14.736-20.147-28.07-29.238-17-9.088 11.068.697 23.424.697 23.424s-33.761-8.689-33.761-38.158 28.956-39.811 49.77-22.668c10.094 8.309 23.32 23.797 23.32 64.604.002 12.845-.695 34.755-8.005 37.023z"/><path style="fill:#fcef3c;stroke:#000;stroke-width:3;stroke-linecap:round;stroke-linejoin:round" d="M436.7 442.789c0-21.779 14.277-32.731 19.8-59.715 5.523 26.984 19.8 37.936 19.8 59.715 0 32.748-14.8 41.139-14.8 77.377 0 27.66 7.18 27.27 7.18 37.793 0 11.297-7.898 10.906-12.18 26.553-4.283-15.646-12.18-15.258-12.18-26.553 0-10.523 7.18-10.135 7.18-37.793.002-36.237-14.8-44.629-14.8-77.377z"/><path style="fill:#fcef3c;stroke:#000;stroke-width:3;stroke-linecap:round;stroke-linejoin:round" d="M480.145 520.162c0-3.252-2.428-5.887-5.426-5.887H438.28c-2.994 0-5.424 2.635-5.424 5.887h0c0 3.252 2.43 5.887 5.424 5.887h36.438c2.998-.001 5.426-2.637 5.426-5.887h0z"/><g><path style="fill:#fcef3c;stroke:#000;stroke-width:3;stroke-linecap:round;stroke-linejoin:round" d="M314.356 394.804c16.359 3.775 20.883-13.221 20.883-13.221-22.971 8.69-21.928-19.27-18.098-34.004 3.828-14.736 20.145-28.071 29.236-17.001 9.088 11.069-.7 23.425-.7 23.425s33.763-8.689 33.763-38.159c0-29.468-28.957-39.811-49.768-22.668-10.096 8.309-23.322 23.798-23.322 64.604 0 12.846.697 34.756 8.006 37.024zM288.646 394.804c-16.36 3.775-20.882-13.221-20.882-13.221 22.97 8.69 21.926-19.27 18.1-34.004-3.83-14.736-20.148-28.071-29.238-17.001-9.088 11.069.696 23.425.696 23.425s-33.76-8.689-33.76-38.159c0-29.468 28.956-39.811 49.77-22.668 10.094 8.309 23.32 23.798 23.32 64.604.002 12.846-.694 34.756-8.006 37.024z"/><path style="fill:#fcef3c;stroke:#000;stroke-width:3;stroke-linecap:round;stroke-linejoin:round" d="M281.7 279.116c0-21.779 14.277-32.731 19.8-59.715 5.523 26.984 19.8 37.936 19.8 59.715 0 32.749-14.8 41.138-14.8 77.376 0 27.661 7.18 27.27 7.18 37.793 0 11.298-7.898 10.907-12.18 26.553-4.283-15.646-12.18-15.258-12.18-26.553 0-10.523 7.179-10.135 7.179-37.793.003-36.236-14.8-44.627-14.8-77.376z"/><path style="fill:#fcef3c;stroke:#000;stroke-width:3;stroke-linecap:round;stroke-linejoin:round" d="M325.145 356.489c0-3.251-2.428-5.887-5.426-5.887H283.28c-2.995 0-5.424 2.636-5.424 5.887h0c0 3.252 2.429 5.888 5.424 5.888h36.438c2.998-.001 5.426-2.637 5.426-5.888h0z"/></g><g><path style="fill:#fcef3c;stroke:#000;stroke-width:3;stroke-linecap:round;stroke-linejoin:round" d="M159.358 231.133c16.359 3.775 20.883-13.221 20.883-13.221-22.971 8.69-21.928-19.27-18.098-34.004 3.828-14.736 20.145-28.071 29.236-17.001 9.088 11.069-.7 23.425-.7 23.425s33.763-8.689 33.763-38.159c0-29.468-28.957-39.811-49.768-22.668-10.096 8.309-23.322 23.798-23.322 64.604 0 12.847.697 34.756 8.006 37.024zM133.648 231.133c-16.36 3.775-20.882-13.221-20.882-13.221 22.97 8.69 21.926-19.27 18.1-34.004-3.83-14.736-20.148-28.071-29.238-17.001-9.088 11.069.696 23.425.696 23.425s-33.76-8.689-33.76-38.159c0-29.468 28.956-39.811 49.77-22.668 10.094 8.309 23.32 23.798 23.32 64.604.002 12.847-.694 34.756-8.006 37.024z"/><path style="fill:#fcef3c;stroke:#000;stroke-width:3;stroke-linecap:round;stroke-linejoin:round" d="M126.702 115.445c0-21.779 14.277-32.731 19.8-59.715 5.523 26.984 19.8 37.936 19.8 59.715 0 32.749-14.8 41.138-14.8 77.376 0 27.661 7.18 27.27 7.18 37.793 0 11.298-7.898 10.907-12.18 26.553-4.283-15.646-12.18-15.258-12.18-26.553 0-10.523 7.179-10.135 7.179-37.793.003-36.236-14.8-44.627-14.8-77.376z"/><path style="fill:#fcef3c;stroke:#000;stroke-width:3;stroke-linecap:round;stroke-linejoin:round" d="M170.147 192.818c0-3.251-2.428-5.887-5.426-5.887h-36.438c-2.995 0-5.424 2.636-5.424 5.887h0c0 3.252 2.429 5.888 5.424 5.888h36.438c2.998-.001 5.426-2.637 5.426-5.888h0z"/></g></g><g style="display:inline"><path style="fill:url(#b);fill-opacity:1" d="M1.5 1.5v458.868c0 166.31 134.315 301.132 300 301.132s300-134.821 300-301.132V1.5H1.5z"/></g><g style="display:inline"><path style="fill:none;fill-opacity:1;stroke:#000;stroke-width:3;stroke-miterlimit:4;stroke-dasharray:none;stroke-opacity:1" d="M1.5 1.5v458.868c0 166.31 134.315 301.132 300 301.132s300-134.821 300-301.132V1.5H1.5z"/></g></svg>
